src/imgs/telegram.svg

<svg height="64" viewBox="0 0 32 32" width="64" xmlns="http://www.w3.org/2000/svg"><path d="m26.070313 3.996094c-.335938.015625-.652344.113281-.933594.222656h-.003906c-.285157.113281-1.640625.683594-3.699219 1.546875-2.058594.867188-4.730469 1.992188-7.382813 3.109375-5.296875 2.230469-10.503906 4.425781-10.503906 4.425781l.0625-.023437s-.359375.117187-.734375.375c-.191406.125-.402344.296875-.585937.566406-.183594.269531-.332032.683594-.277344 1.109375.089844.722656.558594 1.15625.894531 1.394531.339844.242188.664063.355469.664063.355469h.007812l4.882813 1.644531c.21875.703125 1.488281 4.875 1.792968 5.835938.179688.574219.355469.933594.574219 1.207031.105469.140625.230469.257813.378906.351563.058594.035156.121094.0625.183594.085937.019531.011719.039063.015625.0625.019531l-.050781-.011718c.015625.003906.027344.015625.039062.019531.039063.011719.066407.015625.117188.023437.773437.234375 1.394531-.246093 1.394531-.246093l.035156-.027344 2.882813-2.625 4.832031 3.707031.109375.046875c1.007813.441406 2.027344.195313 2.566406-.238281.542969-.4375.753907-.996094.753907-.996094l.035156-.089844 3.734375-19.128906c.105469-.472656.132812-.914062.015625-1.34375-.117188-.429687-.417969-.832031-.78125-1.046875-.367188-.21875-.730469-.285156-1.066406-.269531zm-.101563 2.050781c-.003906.0625.007813.054688-.019531.175781v.011719l-3.699219 18.929688c-.015625.027343-.042969.085937-.117187.144531-.078125.0625-.140625.101562-.464844-.027344l-5.910156-4.53125-3.570313 3.253906.75-4.789062s9.257813-8.628906 9.65625-9c.398438-.371094.265625-.449219.265625-.449219.027344-.453125-.601562-.132812-.601562-.132812l-12.175782 7.542968-.003906-.019531-5.835937-1.964844v-.003906c-.003907 0-.011719-.003906-.015625-.003906.003906 0 .03125-.011719.03125-.011719l.03125-.015625.03125-.011719s5.210937-2.195312 10.507812-4.425781c2.652344-1.117187 5.324219-2.242187 7.378906-3.109375 2.054688-.863281 3.574219-1.496094 3.660157-1.53125.082031-.03125.042968-.03125.101562-.03125z"/></svg>

<?xml version="1.0" encoding="UTF-8"?>
<svg xmlns="http://www.w3.org/2000/svg" xmlns:xlink="http://www.w3.org/1999/xlink" viewBox="0 0 32 32" version="1.1" width="64px" height="64px">
<g id="surface1">
<path style=" " d="M 26.070313 3.996094 C 25.734375 4.011719 25.417969 4.109375 25.136719 4.21875 L 25.132813 4.21875 C 24.847656 4.332031 23.492188 4.902344 21.433594 5.765625 C 19.375 6.632813 16.703125 7.757813 14.050781 8.875 C 8.753906 11.105469 3.546875 13.300781 3.546875 13.300781 L 3.609375 13.277344 C 3.609375 13.277344 3.25 13.394531 2.875 13.652344 C 2.683594 13.777344 2.472656 13.949219 2.289063 14.21875 C 2.105469 14.488281 1.957031 14.902344 2.011719 15.328125 C 2.101563 16.050781 2.570313 16.484375 2.90625 16.722656 C 3.246094 16.964844 3.570313 17.078125 3.570313 17.078125 L 3.578125 17.078125 L 8.460938 18.722656 C 8.679688 19.425781 9.949219 23.597656 10.253906 24.558594 C 10.433594 25.132813 10.609375 25.492188 10.828125 25.765625 C 10.933594 25.90625 11.058594 26.023438 11.207031 26.117188 C 11.265625 26.152344 11.328125 26.179688 11.390625 26.203125 C 11.410156 26.214844 11.429688 26.21875 11.453125 26.222656 L 11.402344 26.210938 C 11.417969 26.214844 11.429688 26.226563 11.441406 26.230469 C 11.480469 26.242188 11.507813 26.246094 11.558594 26.253906 C 12.332031 26.488281 12.953125 26.007813 12.953125 26.007813 L 12.988281 25.980469 L 15.871094 23.355469 L 20.703125 27.0625 L 20.8125 27.109375 C 21.820313 27.550781 22.839844 27.304688 23.378906 26.871094 C 23.921875 26.433594 24.132813 25.875 24.132813 25.875 L 24.167969 25.785156 L 27.902344 6.65625 C 28.007813 6.183594 28.035156 5.742188 27.917969 5.3125 C 27.800781 4.882813 27.5 4.480469 27.136719 4.265625 C 26.769531 4.046875 26.40625 3.980469 26.070313 3.996094 Z M 25.96875 6.046875 C 25.964844 6.109375 25.976563 6.101563 25.949219 6.222656 L 25.949219 6.234375 L 22.25 25.164063 C 22.234375 25.191406 22.207031 25.25 22.132813 25.308594 C 22.054688 25.371094 21.992188 25.410156 21.667969 25.28125 L 15.757813 20.75 L 12.1875 24.003906 L 12.9375 19.214844 C 12.9375 19.214844 22.195313 10.585938 22.59375 10.214844 C 22.992188 9.84375 22.859375 9.765625 22.859375 9.765625 C 22.886719 9.3125 22.257813 9.632813 22.257813 9.632813 L 10.082031 17.175781 L 10.078125 17.15625 L 4.242188 15.191406 L 4.242188 15.1875 C 4.238281 15.1875 4.230469 15.183594 4.226563 15.183594 C 4.230469 15.183594 4.257813 15.171875 4.257813 15.171875 L 4.289063 15.15625 L 4.320313 15.144531 C 4.320313 15.144531 9.53125 12.949219 14.828125 10.71875 C 17.480469 9.601563 20.152344 8.476563 22.207031 7.609375 C 24.261719 6.746094 25.78125 6.113281 25.867188 6.078125 C 25.949219 6.046875 25.910156 6.046875 25.96875 6.046875 Z "/>
</g>
</svg>
